X:1
T:Zwölf Gesänge
T:Vaters Klage
T:4. Vaters Klage
T:Louise Reichardt
T:Elwert
T:Zwölf Gesänge
T:OpenScore (CC0)
C:Louise Reichardt
Z:Elwert
Z:OpenScore (CC0)
%%score 1 { 2 | ( 3 4 ) }
L:1/8
Q:1/4=90
M:6/8
K:Bb
V:1 treble nm="Voice"
V:2 treble nm="Piano"
V:3 bass 
V:4 bass 
V:1
"^Sanft klagend" D |:SS[Q:3/16=60] B A G BA G | A3 D2 d | d2 G G ^F G | A3 z2 A | B2 B A2 A | %6
w: Es|ste- hen drei Stern' * am|Him- mel, die|bli- cken trau- rig her-|ab; zu|Ber- koch an der|
 c3 B2 B | _A2 A cB A | G2 ^F G2 D!D.S.! :| G2!dacoda! |] %10
w: Kir- che, da|ist ein neu- * ge-|mach- tes Grab. 2.~Ich|–den|
V:2
 D |: GDD GDD | ^FDD FDD | GDD G^CC | ^FDD FDD | [DGB]DD [CD^FA]DD | [EAc]EE [DGB]DD | %7
 [CE_A]EE [CEA]EE | GD[C^F] GDD :| [B,G]2 |] %10
V:3
 z |: [G,,G,]3 [G,,G,]3 | [D,,D,]3 [D,,D,]3 | [G,,G,]3 [E,,E,]3 | [D,,D,]3 [D,,D,]3 | %5
 [G,,G,]3 [G,,G,]3 | [G,,G,]3 [G,,G,]3 | [C,,C,]3 [C,,C,]3 | [D,,D,]3 [G,,G,]3 :| G,,2 |] %10
V:4
 x |: B, x2 B, x2 | A, x2 A, x2 | B, x2 G, x2 | A, x2 A, x2 | x6 | x6 | x6 | B, x2 B, x2 :| x2 |] %10

